!!!COM:	Pierre de la Rue
**kern	**kern
*part2	*part1
*staff2	*staff1
*clefGv2	*clefG2
*k[b-]	*k[b-]
*M2/1	*M2/1
=1-	=1-
0r	1g
.	2e
.	2f
=2	=2
1c	2g
.	2.a
2A	.
.	4g
2B-	2g
=3	=3
2c	2a
2.d	2f
.	1e
4c	.
2c	.
=4	=4
2d	1d
2B-	.
1A	2r
.	2a
=5	=5
1G	2b-
.	2.b-
2r	.
.	4g
2d	4a
.	4b-
=6	=6
2e	2cc
2.e	2.cc
4c	4a
4d	4b-
4e	4cc
=7	=7
2f	2dd
2.f	4cc
.	4b-
.	1a
4d	.
4e	.
4f	.
=8	=8
2g	1g
4f	.
4e	.
1d	2r
.	2f
=9	=9
1c	2g
.	2a
2r	2.b-
2B-	.
.	4g
=10	=10
2c	1a
2d	.
2.e	2g
.	[2cc
4c	.
=11	=11
1d	4cc]
.	4b-
.	2b-
2c	2cc
[2f	[2a
=12	=12
4f]	4a]
4e	4g
2e	2g
2f	2a
[2d	[2f
=13	=13
4d]	4f]
4c	4e
2c	2e
2d	4f
.	4d
[2B-	[2dd
=14	=14
4B-]	4dd]
4A	4cc
2A	2cc
4B-	2dd
4G	.
[2g	4cc
.	4b-
=15	=15
4g]	4a
4f	4g
2f	2a
2g	2.g
4f	.
4e	4a
=16	=16
4d	2b-
4c	.
2d	1a
2.c	.
.	[2g
4d	.
=17	=17
2e	2g]
1d	4f
.	4e
.	4d
.	4e
[2c	4f
.	4g
=18	=18
2c]	4a
.	4b-
4B-	2cc
4A	.
4G	2b-
4A	.
4B-	[2a
4c	.
=19	=19
4d	2a]
4e	.
2f	4g
.	4f
2e	2g
[2d	2a
=20	=20
2d]	2f
4c	4e
4B-	4d
2c	2.e
2d	.
.	4f
=21	=21
2B-	2d
4A	2.g
4G	.
2.A	.
.	4f
.	2f
4B-	.
=22	=22
0G	0g
==	==
*-	*-
